X:1
T:Trauer und Trost, Op.3
T:Angedenken
T:2. Angedenken
T:Peter Cornelius
T:Trauer und Trost, Op.3
T:Peter Cornelius
T:Creative Commons copyright waiver (CC0 1.0 Universal) 
C:Peter Cornelius
Z:Peter Cornelius
Z:Creative Commons copyright waiver (CC0 1.0 Universal)
Z:
L:1/8
M:2/4
K:D
V:1 treble nm="Voice" snm="Vo."
V:1
 z4 | z B G>E | D4 | z A =F>E | =C4 | z =F F>D | =F4 | z E G>^F | F4 | z4 | z d _B>G | =F4 | %12
w: |Von stil lem|Ort,|von küh- ler|Statt|nahm ich mit|fort|ein E- pheu-|blatt.||Ein Re- qui-|em|
 z =c _A>=F | _E4 | z _A A>_F | _A4- | A_A A>=E | =A4- | A2 z2 | z4 | z B G>E | D4 | z A =F>D | %23
w: tönt leis' und|matt,|so oft ich|nehm'|* zur Hand das|Blatt.|||Wenn al- ler|Schmerz|ge- en- det|
 =C4 | z =F F>D | =F4 | z E G>^F | F4 | z4 |] %29
w: hat,|legt mir aufs|Herz|das E- pheu-|blatt.||

